src/assets/images/callToAction/right.svg

<svg width="514" height="517" viewBox="0 0 514 517" fill="none" xmlns="http://www.w3.org/2000/svg">
<path d="M26.6443 222.039H258.402L495.516 0H206.942C200.194 0 193.686 2.57213 188.754 7.18607L8.47015 176.006C-9.13403 192.499 2.53134 222.039 26.6576 222.039H26.6443Z" fill="#0043FF" fill-opacity="0.03"/>
<path d="M364.35 222.039H811V0H601.637L364.35 222.039Z" fill="#0043FF" fill-opacity="0.03"/>
<path d="M26.6443 294.052H258.402L495.516 516.091H206.942C200.194 516.091 193.686 513.519 188.754 508.905L8.47015 340.085C-9.13403 323.592 2.53134 294.052 26.6576 294.052H26.6443Z" fill="#0043FF" fill-opacity="0.03"/>
<path d="M364.35 294.052H811V516.091H601.637L364.35 294.052Z" fill="#0043FF" fill-opacity="0.03"/>
</svg>

<svg xmlns="http://www.w3.org/2000/svg" width="514" height="517" fill="none"><path fill="#0043FF" fill-opacity=".03" d="M26.644 222.039h231.758L495.516 0H206.942a26.64 26.64 0 0 0-18.188 7.186L8.47 176.006c-17.604 16.493-5.939 46.033 18.188 46.033zM364.35 222.039H811V0H601.637zM26.644 294.052h231.758l237.114 222.039H206.942a26.64 26.64 0 0 1-18.188-7.186L8.47 340.085c-17.604-16.493-5.939-46.033 18.188-46.033zM364.35 294.052H811v222.039H601.637z"/></svg>
